X: 20054
T: The POOR HEART-BROKEN WEAVER
C: Copyright.--J.M.
Q: "Slow and tearfully."
%R: air, march
B: W. Hamilton "Universal Tune-Book" Vol. 2 Glasgow 1846 p.5 #4
S: http://s3-eu-west-1.amazonaws.com/itma.dl.printmaterial/book_pdfs/hamiltonvol2web.pdf
Z: 2016 John Chambers <jc:trillian.mit.edu>
M: C
L: 1/8
K: Bb
%%slurgraces yes
%%graceslurs yes
% - - - - - - - - - - - - - - - - - - - - - - - - -
f2 |\
f3e d2e2 | (d2c2)(c2e2) | d3c e2g2 | (g4 f2)e2 |\
d3e c2A2 | B2G2 c3A | Bg3 f2e2 | (e4 d2) |]\
f2 |\
b2a2 b3g | f3d g3f | (B2e2 d2c2) | (B2g2 f2)F2 |\
.G2.A2 .B2.c2 | d2b2 a3g | f2B2 {f}e2d2 | (d2c2) B2 |]
% - - - - - - - - - - - - - - - - - - - - - - - - -

%%sep 1 1 500
%%sep 1 1 500

